assets/svg/icon_login_reused.svg

<svg width="24" height="24" viewBox="0 0 24 24" fill="none" xmlns="http://www.w3.org/2000/svg">
<path d="M17.1159 6.88409L17.6462 6.35376V6.35376L17.1159 6.88409ZM18.129 7.8972L18.879 7.90097C18.8769 8.31223 18.544 8.64512 18.1328 8.64719L18.129 7.8972ZM16.0963 8.65742C15.6821 8.6595 15.3447 8.32541 15.3426 7.9112C15.3405 7.49699 15.6746 7.15952 16.0888 7.15744L16.0963 8.65742ZM17.3893 5.85699C17.3913 5.44278 17.7288 5.10868 18.143 5.11077C18.5572 5.11285 18.8913 5.45032 18.8892 5.86453L17.3893 5.85699ZM18.3893 11.0491C18.3331 10.6387 18.6201 10.2604 19.0305 10.2042C19.4409 10.1479 19.8192 10.435 19.8754 10.8454L18.3893 11.0491ZM6.40337 6.40493C9.51709 3.29121 14.5507 3.25825 17.6462 6.35376L16.5856 7.41442C14.0859 4.91472 10.002 4.92758 7.46403 7.46559L6.40337 6.40493ZM17.5951 17.5966C14.4813 20.7104 9.44772 20.7433 6.3522 17.6478L7.41286 16.5871C9.91257 19.0868 13.9964 19.074 16.5344 16.536L17.5951 17.5966ZM6.3522 17.6478C3.25669 14.5523 3.28964 9.51865 6.40337 6.40493L7.46403 7.46559C4.92602 10.0036 4.91316 14.0874 7.41286 16.5871L6.3522 17.6478ZM17.6462 6.35376L18.6593 7.36687L17.5987 8.42753L16.5856 7.41442L17.6462 6.35376ZM18.1328 8.64719L16.0963 8.65742L16.0888 7.15744L18.1252 7.14721L18.1328 8.64719ZM17.379 7.89343L17.3893 5.85699L18.8892 5.86453L18.879 7.90097L17.379 7.89343ZM19.8754 10.8454C20.2027 13.2332 19.4405 15.7512 17.5951 17.5966L16.5344 16.536C18.0365 15.0338 18.6552 12.9885 18.3893 11.0491L19.8754 10.8454Z" fill="#FD4E4E"/>
<path d="M9.75606 11.878C9.75606 12.363 9.36295 12.7561 8.87803 12.7561C8.39311 12.7561 8 12.363 8 11.878C8 11.3931 8.39311 11 8.87803 11C9.36295 11 9.75606 11.3931 9.75606 11.878Z" fill="#FD4E4E"/>
<path d="M13.2678 11.878C13.2678 12.363 12.8747 12.7561 12.3897 12.7561C11.9048 12.7561 11.5117 12.363 11.5117 11.878C11.5117 11.3931 11.9048 11 12.3897 11C12.8747 11 13.2678 11.3931 13.2678 11.878Z" fill="#FD4E4E"/>
<path d="M16.7795 11.878C16.7795 12.363 16.3864 12.7561 15.9015 12.7561C15.4165 12.7561 15.0234 12.363 15.0234 11.878C15.0234 11.3931 15.4165 11 15.9015 11C16.3864 11 16.7795 11.3931 16.7795 11.878Z" fill="#FD4E4E"/>
</svg>

<svg xmlns="http://www.w3.org/2000/svg" width="24" height="24" fill="none"><path fill="#FD4E4E" d="m17.116 6.884.53-.53zm1.013 1.013.75.004a.75.75 0 0 1-.746.746zm-2.033.76a.75.75 0 0 1-.007-1.5zm1.293-2.8a.75.75 0 1 1 1.5.008zm1 5.192a.75.75 0 1 1 1.486-.204zM6.403 6.405c3.114-3.114 8.148-3.147 11.243-.051l-1.06 1.06c-2.5-2.5-6.584-2.486-9.122.052zm11.192 11.192c-3.114 3.113-8.147 3.146-11.243.05l1.06-1.06c2.5 2.5 6.584 2.487 9.122-.051zm-11.243.05C3.257 14.553 3.29 9.52 6.403 6.406l1.061 1.06c-2.538 2.539-2.55 6.622-.051 9.122zM17.646 6.355l1.013 1.013-1.06 1.06-1.013-1.013zm.487 2.293-2.037.01-.007-1.5 2.036-.01zm-.754-.754.01-2.036 1.5.008-.01 2.036zm2.496 2.952a8 8 0 0 1-2.28 6.752l-1.06-1.061a6.5 6.5 0 0 0 1.854-5.487zM9.756 11.878a.878.878 0 1 1-1.756 0 .878.878 0 0 1 1.756 0M13.268 11.878a.878.878 0 1 1-1.756 0 .878.878 0 0 1 1.756 0M16.78 11.878a.878.878 0 1 1-1.757 0 .878.878 0 0 1 1.756 0"/></svg>
